X:1
T:The Bugle Call
T:The Bugle Call
T:D. C. John
T:James Summerfield Bitler, Sr, 1888, alt.
T:Public Domain Courtesy of the Cyber Hymnal™
T:Public Domain Courtesy of the Cyber Hymnal™
C:D. C. John
Z:Public Domain
Z:Courtesy of the Cyber Hymnal™
%%score ( 1 2 ) ( 3 4 )
L:1/8
Q:1/4=88
M:2/4
K:Ab
V:1 treble 
V:2 treble 
V:3 bass 
V:4 bass 
V:1
 [CE][EA] [EA][EA] | [EA] [EG]3 | [EG][EA] [GB][GB] | [GB]4 | [EA][EB] [Ac][Ac] | [Ac]2 [Ac]2 | %6
w: 1.~Hear the bu- gle|call- ing,|Come with- out de-|lay;|Ev- ery man be|rea- dy|
w: 2.~Hear the bu- gle|call- ing,|Time is go- ing|fast;|Men are dy- ing|’round you,|
w: 3.~Hear the bu- gle|call- ing;|See, it calls for|you!|Don’t say “there are|o- thers,”|
w: 4.~O, if some poor|sin- ner,|Look- ing now to|thee,|Should be lost for-|ev- er,|
 [Ec][EB] [Ec][A=d] | [Ge]4 | [Ge][Ge] [Ge][Ge] | [Ae]2 [Ac]2 | [Af][Ae] [Gd][Ac] | [GB]4 | %12
w: For the fight to-|day.|Do not sleep in|dan- ger,|Do not he- si-|tate;|
w: Life will soon be|past!|Seize the mo- ment|quick- ly,|Speak the word just|now;|
w: That will ne- ver|do.|For your place, my|bro- ther,|O- thers can not|fill;|
w: To e- ter- ni-|ty,|Could you clear your|con- science|Of the blood of|men?|
 [Ec][Ec] [EB][EA] | [DG] [DF]3 | [CE][CE] [DG][DG] | [CA]2 z2 ||"^Refrain" [Ae][Ae] [Ae][Ae] | %17
w: Rouse you up, O|sol- diers,|For the foe is|great.||
w: Trust the Lord to|guide you,|He will show you|how.|Hear the bu- gle|
w: You must do your|du- ty,|Do it with a|will.||
w: At the bar of|Je- sus,|Can you meet it|then?||
 e4 | c3 e | e2 cA | e2 cA | E2 c2 | A2 z2 | [Ae][Ae] [Ae][Ae] | e4 | c4 | [Af][Ae] [Gd][Ac] | %27
w: ||||||||||
w: call-|ing, Call-|ing you and|me; A- wake,|ye sol-|diers|of the cross! Hear|the|bu-|gle call- ing, Call-|
w: ||||||||||
w: ||||||||||
 [GB]4 | [Ed][Ec] [EB][EA] | [DG] [DF]3 | [CE][CE] [DG][DG] | [CA]4 |] %32
w: |||||
w: ing|you and me, Come|with- out|de- lay; Rouse you|up,|
w: |||||
w: |||||
V:2
 x4 | x4 | x4 | x4 | x4 | x4 | x4 | x4 | x4 | x4 | x4 | x4 | x4 | x4 | x4 | x4 || x4 | AA AA | %18
 AA Ae | e2 (cA) | e2 (cA) | E2 c2 | A2 x2 | x4 | AA AA | AA A2 | x4 | x4 | x4 | x4 | x4 | x4 |] %32
V:3
 [A,,A,][A,,C] [A,,C][A,,C] | [E,C] [E,B,]3 | [E,B,][E,C] [E,D][E,D] | [E,D]4 | %4
 [A,C][A,D] [A,E][A,E] | [A,E]2 [A,E]2 | A,[G,B,] A,[F,B,] | [E,B,]4 | [E,B,][E,B,] [E,B,][E,B,] | %9
 [A,C]2 [A,E]2 | D[CE] [B,E][A,E] | E4 | [A,,A,][A,,A,] [B,,G,][C,A,] | [D,A,] [D,A,]3 | %14
 [E,A,][E,A,] [E,B,][E,B,] | [A,,A,]2 z2 || [A,C][A,C] [A,C][A,C] | [A,C][A,C] [A,C][A,C] | %18
 [A,E][A,E] [A,E]E | E2 CA, | E2 CA, | E,2 C2 | A,2 z2 | [A,C][A,C] [A,C][A,C] | %24
 [A,C][A,C] [A,C][A,C] | [A,E][A,E] [A,E]2 | D[CE] [B,E][A,E] | E4 | [A,,A,][A,,A,] [B,,G,][C,A,] | %29
 [D,A,] [D,A,]3 | [E,A,][E,A,] [E,B,][E,B,] | [A,,A,]4 |] %32
V:4
 x4 | x4 | x4 | x4 | x4 | x4 | A,A, x2 | x4 | x4 | x4 | D x3 | (E,D,C,B,,) | x4 | x4 | x4 | x4 || %16
 x4 | x4 | x3 E | E2 (CA,) | E2 (CA,) | E,2 C2 | A,2 x2 | x4 | x4 | x4 | D x3 | (E,D,C,B,,) | x4 | %29
 x4 | x4 | x4 |] %32

